X:1
T:Je prens en grey
T:Je prens en grey
T:Anonymous
C:Anonymous
%%score [ 1 [ 2 3 ] 4 ]
L:1/8
Q:1/4=80
M:2/2
K:F
V:1 treble nm="Soprano" snm="S"
V:2 treble-8 nm="Tenor 1" snm="T 1"
V:3 treble-8 nm="Tenor 2" snm="T 2"
V:4 bass nm="Bass" snm="B"
V:1
 F4 F2 G2 | AGAB A2 c2 | B6 A2 | G4 z2 c2 | B2 A4 GF | G4 z4 | z4 c4 | B2 A4 GF | E2 G4 F2- | %9
w: Je prens en|grey _ _ _ _ la|du- re|mort, pour|vous ma da- *|me,|pour|vous ma- da- *||
 F2 ED EC G2- | G2 F4 E2 | F4 z4 | F4 F2 G2 | AGAB A2 c2 | B6 A2 | G4 z2 c2 | B2 A4 GF | G4 z4 | %18
w: * * * * * me|_ par a-|mours,|na- vré m'a-|vez _ _ _ _ mais|à grand|tort, dont|brief, _ _ _|_|
 z4 c4 | B2 A4 GF | E2 G3 E A2 | GF F4 E2 | F8 | z2 F2 F2 F2 | B3 A G2 F2 | G8 | z2 G2 G2 G2 | %27
w: dont|brief je _ _|_ fi- ni- ray|_ _ _ mes|jours,|la cho- se|me vient à re-|bours,|la cho- se|
 c3 B A2 G2 | F4 z2 A2 | A2 B2 A2 D2 | A2 B2 A4 | G4 G4- | G4 z2 c2 |: cc c3 BAG | F2 G2 GG F2- | %35
w: me vient à re-|bours, souf-|frir si tost la|mort a- me-|* re,|_ O|du- re mort, que faic- tes|vous, O du- re mort,|
 FEDC D4 | z2 B2 BB B2- | BAGF E2 G2 | G4 z2 G2 | G2 G2 c3 B | A2 G4 F2- |1 F2 E2 F2 c2 :|2 %42
w: _ que faic- tes vous,|O du- re mort|_ que faic- tes vous, mo-|rir, mo-|rir me fault, c'est|cho- se cle-|* * re, O|
 F2 E2 F3 E/D/ || E4 z2 G2 | G2 G2 c3 B | A2 G4 F2- | F2 E2 F4- | F8 |] %48
w: |re, c'est|cho- se cle- *||* * re.|_|
V:2
 c4 d2 e2 | f6 g2 | g6 f2 | e2 c2 e3 f | d4 c4 | z4 f4 | e3 d e2 c2 | d2 c4 B2 |"^b" c2 e3 d c2- | %9
w: Je prens en|grey la|du- *||re mort,|pour|vous ma da- *|me par a-|mours, pour _ vous|
 c2 B2 c2 d2 | c2 B2 c4 | A4 z4 | c4 d2 e2 | f6 g2 | g6 f2 | e2 c2 e3 f | d4 c4 | z4 f4 | %18
w: _ ma- da- *|me par a-|mours,|na- vré m'a-|vez mais|à grand|_ _ _ _|* tort,|dont|
 e3 d e2 c2 | d2 c4 B2 |"^b" c2 e4 dc | d2 B2 c4 | z2 c2 c2 c2 | f3 e d2 c2 | d4 z2 F2 | %25
w: brief je fi- ni|ray mes _|_ _ _ _|* * jours,|la cho- se|me vient à re-|bours, la|
"^b" c3 d e2 d2 |"^b""^b" ec d2 e2 c2 | c2 c2 f2 e2 | d3 c/B/ A2 f2 | f2 d2 c2 d2 | c2 g2 e2 f2 | %31
w: cho- se me vient|à _ re- bours, la|cho- se me vient|à re- * bours, souf-|frir si tost la|mort a- me- *|
 d3 c d4 | e8 |: f2 ff f3 e |"^b" dc B2 e2 dc | d2 f4 ff | f2 g2 g2 f2 | f2 ed c4 | e4 e2 d2 | %39
w: |re,|O du- re mort, que|faic- tes vous, O du- re|mort, que- faic- tes|vous, que faic- tes|vous, _ _ _|mo- rir me|
 e6 e2 | f2 e2 d4 |1 c8 :|2 c4 z2 c2 || c2 g2 c2 d2 | e3 d e2 f2- | f2 e2 d4 | c4 A4- | A8 |] %48
w: fault, c'est|cho- se cle-|re,|re, mo-|rir me fault, c'est|cho- * * *|* se cle-|* re.|_|
V:3
 F4 A2 B2 | c6 _e2 | _e6 c2 | c8 | f4 e3 d | e2 c2 d2 c2- | c2 BA G2 A2 | F8 | z2 c2 B3 A | %9
w: Je prens en|grey la|du- re|mort,|pour vous ma|da- * me par|_ a- * * *|mours,|pour vous ma|
 A2 GF G2 B2 | A2 F2 G4 | F3 G A4 | A4 A2 B2 | c6 _e2 | _e6 c2 | c8 | f4 e3 d | e2 c2 d2 c2- | %18
w: da- * * me par|a- * *|* * mours,|na- vré m'a-|vez mais|à grand|tort,|dont brief je|fi- ni ray mes-|
 c2 BA G2 A2 | F8 | z2 c2 B2 A2 | BAGF G2 G2 | F3 G A4 | z8 | B4 B2 B2 |"^b" e3 d c2 BA | B4 z4 | %27
w: |jours,|dont brief je|fi- * * * * ni-|ray mes jours,||la cho- se|me vient à re- *|bours,|
 z2 c2 c2 c2 | f3 e d2 c2 | d4 z2 f2 | f2 d2 c2 d2 | B2 c3 B/A/ B2 | c8 |: z8 | z4 B2 BB | %35
w: la cho- se|me vient à re-|bours, souf-|frir si tost la|mort a- * * me-|re,||O du- re|
 B4 z2 d2 |"^b" dddd e2 dc | dc BA G2 G2 | c6 B2 | c4 z2 c2 | c3 B A2 B2 |1 G4 F4 :|2 G4 F4 || %43
w: mort, que|faic- tes vous, que faic tes _|vous _ _ _ _ mo-|rir me|fault, c'est|cho- se cle- *|* re,|* re,|
 z2 c2 e2 B2 | c3 B AG F2 | c4 A2 B2 | G4 F4- | F8 |] %48
w: mo- rir ma|fault _ _ _ _|c'est cho- se|cle- re.|_|
V:4
 F,4 D,2 G,2 | F,6 C,2 | _E,6 F,2 | C,8 | z8 | C4 B,2 A,2- | A,2 G,F, E,2 F,2 | D,4 D,4 | %8
w: Je prens en|grey la|du- re|mort,||pour vous ma|_ da- * * me|par a-|
"^b" C,3 D, E,2 F,2 | D,4 C,2 B,,2 | C,2 D,2 C,4 | F,4 z4 | F,4 D,2 G,2 | F,6 C,2 | _E,6 F,2 | %15
w: mours, _ _ pour|vous ma- da-|me par a-|mours,|na- vré m'a-|vez mais|à grand|
 C,8 | z8 | C4 B,2 A,2- | A,2 G,F, E,2 F,2 | D,4 D,4 |"^b" C,3 D, E,2 F,2 | B,,2 D,2 C,4 | %22
w: tort,||dont brief je|_ _ _ fi- ni-|ray mes|_ _ _ _||
 F,4 z2 F,2 | F,2 F,2 B,2 A,2 |"^b" G,3 F, E,2 D,2 | C,4 z2 G,2 | G,2 G,2 C3 B, | A,3 G, F,2 C,2 | %28
w: jours, la|cho- se me vient|à _ _ re-|bours, la|cho- se me vient|à _ _ re-|
 D,2 B,,2 F,4- | F,2 G,2 A,2 B,2 | A,2 G,2 A,2 F,2 | G,8 | C,8 |: z8 |"^b" z2 _E,2 E,E, B,,2 | %35
w: bours, souf- frir|_ si tost la|mort a- me- *||re,||O du- re mort,|
 z2 B,2 B,B, B,2- | B,A, G,F, _E,2 B,,2 | B,,2 B,,2 C,4 | z2 C,2 C,2 G,2 | C,2 C2 CB,A,G, | %40
w: O- du- re mort|_ que faic- * * ctes|vous, mo- rir,|mo- rir me|fault c'est cho- * * *|
 F,2 C,2 D,2 B,,2 |1 C,4 F,4 :|2 C,4 F,4 || z2 C,2 C,2 G,2 | C,2 C2 CB,A,G, | F,2 C,2 D,2 B,,2 | %46
w: * se- cle- *|* re,|* re,|mo- rir me-|fault c'est cho- * * *|* se cle- *|
 C,4 F,4- | F,8 |] %48
w: * re.|_|

